Dominus_Dark_Funeral/scalable/mimes/application-x-blender.svg

<svg xmlns="http://www.w3.org/2000/svg" xmlns:xlink="http://www.w3.org/1999/xlink" width="48" height="48" viewBox="0 0 12.7 12.7"><defs><linearGradient gradientTransform="translate(0 .01) scale(.26458)" xlink:href="#a" id="c" x1="3.02" y1="14.79" x2="39.16" y2="37.23" gradientUnits="userSpaceOnUse"/><linearGradient id="a"><stop offset="0" stop-color="#f60"/><stop offset=".2" stop-color="#ff8f44"/><stop offset=".33" stop-color="#ff7f2a"/><stop offset=".45" stop-color="#ff7f2a"/><stop offset=".65" stop-color="#e1610c"/><stop offset=".76" stop-color="#ff7f2a"/><stop offset="1" stop-color="#ff7f2a"/></linearGradient><linearGradient gradientTransform="translate(-.08 -.21)" xlink:href="#b" id="d" x1="3.22" y1="2.66" x2="14.32" y2="10.28" gradientUnits="userSpaceOnUse"/><linearGradient id="b"><stop offset="0"/><stop offset="1" stop-opacity="0"/></linearGradient></defs><path d="M10.82 4.62L8.75 12.7h-4.8L1.88 4.62 3.44.02h5.82z" fill="url(#c)"/><path d="M4.84 11.6l-.89 1.1h4.8l-.89-1.1z" fill="#803300" fill-opacity=".1"/><path d="M7.86 11.6l.89 1.1 2.07-8.08-1.18.04z" fill="#803300" fill-opacity=".47"/><path d="M3.44.02l.82 1.1h4.18l.82-1.1z" fill="#803300" fill-opacity=".35"/><path d="M10.82 4.62L9.26.02l-.82 1.1 1.2 3.54z" fill="#803300" fill-opacity=".71"/><path d="M4.84 11.6l-.89 1.1-2.07-8.08 1.18.04z" fill="#803300" fill-opacity=".47"/><path d="M1.88 4.62L3.44.02l.82 1.1-1.2 3.54z" fill="#803300" fill-opacity=".71"/><path d="M4.04 6.04l.93-1.03-1.02-1.02 1.59-.2 1.63-.07-.07-.79 2.372 2.402-1.256 4.924z" opacity=".58" fill="url(#d)"/><path d="M6.19 2.17a.32.32 0 0 0-.23.55l.74.75H4.21a.32.32 0 0 0 0 .65h1.2L4 5.5a.32.32 0 1 0 .44.48l.74-.74A1.73 1.73 0 1 0 8 3.85L6.43 2.28a.32.32 0 0 0-.24-.11zm.73 1.95c.23 0 .47.08.65.22l.2.19a1.08 1.08 0 1 1-.85-.41zm0 .65a.43.43 0 1 0 0 .86.43.43 0 0 0 0-.86z" style="line-height:normal;text-indent:0;text-align:start;text-decoration-line:none;text-transform:none;marker:none" fill="#28170b"/></svg>

<?xml version="1.0" encoding="UTF-8" standalone="no"?>
<svg
   xmlns:dc="http://purl.org/dc/elements/1.1/"
   xmlns:cc="http://creativecommons.org/ns#"
   xmlns:rdf="http://www.w3.org/1999/02/22-rdf-syntax-ns#"
   xmlns:svg="http://www.w3.org/2000/svg"
   xmlns="http://www.w3.org/2000/svg"
   xmlns:xlink="http://www.w3.org/1999/xlink"
   xmlns:sodipodi="http://sodipodi.sourceforge.net/DTD/sodipodi-0.dtd"
   xmlns:inkscape="http://www.inkscape.org/namespaces/inkscape"
   width="48"
   height="48"
   viewBox="0 0 12.7 12.7"
   version="1.1"
   id="svg44"
   sodipodi:docname="application-x-blender.svg"
   inkscape:version="0.92.4 (5da689c313, 2019-01-14)">
  <metadata
     id="metadata48">
    <rdf:RDF>
      <cc:Work
         rdf:about="">
        <dc:format>image/svg+xml</dc:format>
        <dc:type
           rdf:resource="http://purl.org/dc/dcmitype/StillImage" />
        <dc:title></dc:title>
      </cc:Work>
    </rdf:RDF>
  </metadata>
  <sodipodi:namedview
     pagecolor="#ffffff"
     bordercolor="#666666"
     borderopacity="1"
     objecttolerance="10"
     gridtolerance="10"
     guidetolerance="10"
     inkscape:pageopacity="0"
     inkscape:pageshadow="2"
     inkscape:window-width="1112"
     inkscape:window-height="480"
     id="namedview46"
     showgrid="false"
     inkscape:zoom="4.9166667"
     inkscape:cx="2.1355932"
     inkscape:cy="24"
     inkscape:window-x="0"
     inkscape:window-y="25"
     inkscape:window-maximized="0"
     inkscape:current-layer="svg44" />
  <defs
     id="defs24">
    <linearGradient
       gradientTransform="matrix(0.26458,0,0,0.26458,0,0.01)"
       xlink:href="#a"
       id="c"
       x1="3.02"
       y1="14.79"
       x2="39.16"
       y2="37.23"
       gradientUnits="userSpaceOnUse" />
    <linearGradient
       id="a">
      <stop
         offset="0"
         stop-color="#f60"
         id="stop3" />
      <stop
         offset=".2"
         stop-color="#ff8f44"
         id="stop5" />
      <stop
         offset=".33"
         stop-color="#ff7f2a"
         id="stop7" />
      <stop
         offset=".45"
         stop-color="#ff7f2a"
         id="stop9" />
      <stop
         offset=".65"
         stop-color="#e1610c"
         id="stop11" />
      <stop
         offset=".76"
         stop-color="#ff7f2a"
         id="stop13" />
      <stop
         offset="1"
         stop-color="#ff7f2a"
         id="stop15" />
    </linearGradient>
    <linearGradient
       gradientTransform="translate(-0.08,-0.21)"
       xlink:href="#b"
       id="d"
       x1="3.22"
       y1="2.66"
       x2="14.32"
       y2="10.28"
       gradientUnits="userSpaceOnUse" />
    <linearGradient
       id="b">
      <stop
         offset="0"
         id="stop19" />
      <stop
         offset="1"
         stop-opacity="0"
         id="stop21" />
    </linearGradient>
  </defs>
  <path
     d="M 10.82,4.62 8.75,12.7 H 3.95 L 1.88,4.62 3.44,0.02 h 5.82 z"
     id="path26"
     style="fill:url(#c)"
     inkscape:connector-curvature="0" />
  <path
     d="m 4.84,11.6 -0.89,1.1 h 4.8 L 7.86,11.6 Z"
     id="path28"
     inkscape:connector-curvature="0"
     style="fill:#803300;fill-opacity:0.1" />
  <path
     d="M 7.86,11.6 8.75,12.7 10.82,4.62 9.64,4.66 Z"
     id="path30"
     inkscape:connector-curvature="0"
     style="fill:#803300;fill-opacity:0.47000002" />
  <path
     d="m 3.44,0.02 0.82,1.1 h 4.18 l 0.82,-1.1 z"
     id="path32"
     inkscape:connector-curvature="0"
     style="fill:#803300;fill-opacity:0.35" />
  <path
     d="M 10.82,4.62 9.26,0.02 8.44,1.12 9.64,4.66 Z"
     id="path34"
     inkscape:connector-curvature="0"
     style="fill:#803300;fill-opacity:0.70999995" />
  <path
     d="M 4.84,11.6 3.95,12.7 1.88,4.62 3.06,4.66 Z"
     id="path36"
     inkscape:connector-curvature="0"
     style="fill:#803300;fill-opacity:0.47000002" />
  <path
     d="m 1.88,4.62 1.56,-4.6 0.82,1.1 -1.2,3.54 z"
     id="path38"
     inkscape:connector-curvature="0"
     style="fill:#803300;fill-opacity:0.70999995" />
  <path
     d="M 4.04,6.04 4.97,5.01 3.95,3.99 5.54,3.79 7.17,3.72 7.1,2.93 9.472,5.332 8.216,10.256 Z"
     id="path40"
     style="opacity:0.57999998;fill:url(#d)"
     inkscape:connector-curvature="0" />
  <path
     d="M 6.19,2.17 A 0.32,0.32 0 0 0 5.96,2.72 L 6.7,3.47 H 4.21 a 0.325,0.325 0 0 0 0,0.65 h 1.2 L 4,5.5 A 0.32557641,0.32557641 0 1 0 4.44,5.98 L 5.18,5.24 A 1.73,1.73 0 1 0 8,3.85 L 6.43,2.28 A 0.32,0.32 0 0 0 6.19,2.17 Z m 0.73,1.95 c 0.23,0 0.47,0.08 0.65,0.22 l 0.2,0.19 A 1.08,1.08 0 1 1 6.92,4.12 Z m 0,0.65 a 0.43,0.43 0 1 0 0,0.86 0.43,0.43 0 0 0 0,-0.86 z"
     style="line-height:normal;text-indent:0;text-align:start;text-decoration:none;text-decoration-line:none;text-transform:none;fill:#28170b;marker:none"
     id="path42"
     inkscape:connector-curvature="0" />
</svg>
